X:5
T:Breakout
M:4/4
L:1/8
R:Reel
C:Gris Sanderson
Q:400
N:This reel was written for the first Waulk Elektrik album 
N:recorded in the beautiful location of Sawmills Studio at 
N:Golant, near Fowey in Cornwall.
K:Ddor
dD~D2DAcd|G2GF GAGF|D2d2cdcA|EGAD- DdcA|
dD~D2DAcd|GDGA cdeg|aged- dcAF|1GdcAD2DA:|2GdcAD2(3ABc||
|:d3e fAga|Aagea2a2-|aege deAe|dcAGA2(3ABc|
d3e ageA-|AGEA,z2(3a^g=g|fedc ABcA|1EAGED2(3ABc:|2EAGED2D2||
|:dDdc- cAdG|FcFc EcED-|D2d2cgfd|A2de- edcA|
dDdc- cAdG|FcFc EcEc|FAc EAc Dc|(3d^c=c AG EGAc:|
